X:109
T:Mandojam
C:
N:TablEdited by Doug Jernigan
L:1/8
Q:1/4=76
M:2/4
K:D
d/e/d/=c/ d/c/B/A/ | =c/d/c/B/ c/B/A/c/ | B/=c/B/A/ B/A/G/B/ | 
A4 | d/e/d/=c/ d/c/B/A/ | =c/d/c/B/ c/B/A/c/ | B/=c/B/A/ B/A/G/B/ | A4 | d/e/d/=c/ d/c/B/A/ | 
=c/d/c/B/ c/B/A/c/ | B/=c/B/A/ B/A/G/B/ | A4 | d/e/d/=c/ d/c/B/A/ | =c/d/c/B/ c/B/A/c/ | 
B/=c/B/A/ B/A/G/B/ | A4 | z4 | D/=f/f/f/ f/e/d/A/ | 
=f/e/d/A/ f/e/d/A/ | B/=c/B/A/ B/A/G/B/ | A4 | D/=f/f/f/ f/e/d/A/ | =f/e/d/A/ f/e/d/A/ | 
B/=c/B/A/ B/A/G/B/ | A4 | D/=f/f/f/ f/e/d/A/ | =f/e/d/A/ f/e/d/A/ | A/=c/c/c/ B/A/G/B/ | 
A4 | D/=f/f/f/ f/e/d/A/ | =f/e/d/A/ f/e/d/A/ | A/=c/c/c/ B/A/G/B/ | A4 | 
b/f/b/c'/ d'/c'/b/f/ | a/e/a/b/ c'/b/a/e/ | g/f/g/a/ b/^a/b/c'/ | 
d'/e'/d'/e'/ f'/g'/f'/e'/ | b/f/b/c'/ d'/c'/b/f/ | a/e/a/b/ c'/b/a/e/ | g/f/g/a/ b/^a/b/c'/ | 
d'/e'/d'/e'/ f'/g'/f'/e'/ | b/f/b/c'/ d'/c'/b/f/ | ^a/=f/a/=c'/ d'/c'/a/f/ | a/e/a/e/ a/e/a/e/ | 
a2 a'3/2a/ | 


